Papirus/22x22/actions/im-ban-user.svg

<?xml version="1.0" encoding="UTF-8" standalone="no"?>
<svg
   xmlns:dc="http://purl.org/dc/elements/1.1/"
   xmlns:cc="http://creativecommons.org/ns#"
   xmlns:rdf="http://www.w3.org/1999/02/22-rdf-syntax-ns#"
   xmlns:svg="http://www.w3.org/2000/svg"
   xmlns="http://www.w3.org/2000/svg"
   version="1.1"
   id="svg2"
   viewBox="0 0 22 22">
  <metadata
     id="metadata20">
    <rdf:RDF>
      <cc:Work
         rdf:about="">
        <dc:format>image/svg+xml</dc:format>
        <dc:type
           rdf:resource="http://purl.org/dc/dcmitype/StillImage" />
        <dc:title></dc:title>
      </cc:Work>
    </rdf:RDF>
  </metadata>
  <defs
     id="defs18" />
  <path
     id="path4150"
     d="m 11,3 c -2.2091257,-5.5e-6 -3.9999834,1.7908522 -4,4 1.66e-5,2.2091478 1.7908743,4.000006 4,4 2.209126,6e-6 3.999983,-1.7908522 4,-4 -1.7e-5,-2.2091478 -1.790874,-4.0000055 -4,-4 z m 0,8.987305 C 6.9720212,11.992105 3.5035081,15.003572 3,19 l 9.712891,0 C 11.678574,18.173381 11,16.917879 11,15.5 11,14.096525 11.66527,12.839825 12.681641,12.012696 11.943079,11.998161 11.187296,11.988709 11,11.987305 Z"
     style="opacity:0.5000002;fill:#000000;fill-opacity:1" />
  <path
     id="path4137"
     d="M 15.5 12 A 3.5 3.5 0 0 0 12 15.5 A 3.5 3.5 0 0 0 15.5 19 A 3.5 3.5 0 0 0 19 15.5 A 3.5 3.5 0 0 0 15.5 12 z M 14.085938 13.378906 L 15.5 14.792969 L 16.914062 13.378906 L 17.621094 14.085938 L 16.207031 15.5 L 17.621094 16.914062 L 16.914062 17.621094 L 15.5 16.207031 L 14.085938 17.621094 L 13.378906 16.914062 L 14.792969 15.5 L 13.378906 14.085938 L 14.085938 13.378906 z "
     style="fill:#e74c3c;fill-opacity:1;opacity:1" />
</svg>

<?xml version="1.0" encoding="UTF-8" standalone="no"?>
<svg id="svg2" xmlns:rdf="http://www.w3.org/1999/02/22-rdf-syntax-ns#" xmlns="http://www.w3.org/2000/svg" viewBox="0 0 22 22" version="1.1" xmlns:cc="http://creativecommons.org/ns#" xmlns:dc="http://purl.org/dc/elements/1.1/">
 <metadata id="metadata20">
  <rdf:RDF>
   <cc:Work rdf:about="">
    <dc:format>image/svg+xml</dc:format>
    <dc:type rdf:resource="http://purl.org/dc/dcmitype/StillImage"/>
    <dc:title/>
   </cc:Work>
  </rdf:RDF>
 </metadata>
 <path id="path4150" opacity="0.5" d="m11 3c-2.2091-0.0000055-4 1.7909-4 4 0.0000166 2.2091 1.7909 4 4 4 2.2091 0.000006 4-1.7909 4-4-0.000017-2.2091-1.7909-4-4-4zm0 8.9873c-4.028 0.005-7.4965 3.017-8 7.013h9.7129c-1.034-0.827-1.713-2.082-1.713-3.5 0-1.403 0.665-2.66 1.682-3.487-0.739-0.015-1.495-0.024-1.682-0.026z"/>
 <path id="path4137" d="m15.5 12a3.5 3.5 0 0 0 -3.5 3.5 3.5 3.5 0 0 0 3.5 3.5 3.5 3.5 0 0 0 3.5 -3.5 3.5 3.5 0 0 0 -3.5 -3.5zm-1.414 1.379l1.414 1.414 1.414-1.414 0.707 0.707-1.414 1.414 1.414 1.414-0.707 0.707-1.414-1.414-1.414 1.414-0.707-0.707 1.414-1.414-1.414-1.414 0.707-0.707z" fill="#e74c3c"/>
</svg>
